X:1
T:Suantrai Ciarraighe
M:C
L:1/8
Q:"Slow"
B:Roche - Collection of Traditional Irish Music, vol. 3 (1927, No. 28)
Z:AK/Fiddler's Companion
K:Amin
B|(d3B) (c2 ec)|(B2A2) (G3B)|(c2B2)(B2d2)|(f2e2) (d3d)|
(e2d2) (d3 d/B/)|(d2 B) (B3A)|G2 (GF) !fermata!E2 (AB)|c2 (BG) A2 z:|
|:B|d4B4|c2 (cA) B3 (d/e/)|(f2e2) (e2dB)|(d2 BA) (B3A)|
(c4B2) (AG)|(A2 GF)(E3 D/E/)|G2G2G2 (AB)|c2 (BG) A3||

